!!!!SEGMENT: pl-sa--l-1643--049_anonim--exiit-sermo-inter-frates.krn
!!!cenid: 16xx:1407
!!!COM: Anonim
!!!COM-rismID: pe30004985
!!!CDT:
!!!CNT:
!!!OTL: Exiit sermo inter frates
!!!PDT:
!!!AGN: Sacred
!!!SMS-siglum: PL-SA
!!!SMS-shelfmark: L 1643
!!!SMS-shelfwork: 049 W
!!!SMS-variant:
!!!SMS-altvar:
!!!NIFC-rismSourceID: 1001064085
!!!NIFC-rismChildID: 1001064085
!!!NIFC-islandoraID:
!!!URL-pdf-islandora:
!!!URL-scan:
!!!ONB-nifc: UWAGA: 8 ksiąg. Primi chori: 1mus Cantus (81-82), C 2dus (81), C 3tius (78-79), Bassus (76); Secondi chori: Primus Cantus (75-76), C 2dus (78-79), Altus (76), Bassus (77). UWAGA: Nie dodawać pustych linii, chyba że w rękopisie pojawiają się dodatkowe oznaczenia dotyczące pełnej obsady (a 4, a 8 itp.)
!!!AIN: 8 empty
!!!key:
**kern	**text	**kern	**text	**kern	**text	**kern	**text	**kern	**text	**kern	**text	**kern	**text	**kern	**text
*group2	*	*group2	*	*group2	*	*group2	*	*group1	*	*group1	*	*group1	*	*group1	*
*part8	*part8	*part7	*part7	*part6	*part6	*part5	*part5	*part4	*part4	*part3	*part3	*part2	*part2	*part1	*part1
*staff8	*staff8	*staff7	*staff7	*staff6	*staff6	*staff5	*staff5	*staff4	*staff4	*staff3	*staff3	*staff2	*staff2	*staff1	*staff1
*Iempty	*	*Iempty	*	*Iempty	*	*Iempty	*	*Iempty	*	*Iempty	*	*Iempty	*	*Iempty	*
*I"Baſsus 2di Chori.	*	*I"Altus secundi Chori.	*	*I"Cantus 2dus Secundi Chori.	*	*I"Primus Cantus 2di Chori	*	*I"Bassus Primi Chori.	*	*I"Cantus 3tius Primi Chori	*	*I"Cantus 2dus Primi Chori.	*	*I"Im(us) Cantus Primi Chori	*
*I'[Coro 2 B]	*	*I'[Coro 2 A]	*	*I'[Coro 2 C 2]	*	*I'[Coro 2 C 1]	*	*I'[Coro 1 B]	*	*I'[Coro 1 C 3]	*	*I'[Coro 1 C 2]	*	*I'[Coro 1 C 1]	*
*clefC3	*	*clefC2	*	*clefC1	*	*clefG2	*	*clefC3	*	*clefC2	*	*clefC1	*	*clefG2	*
*k[b-]	*	*k[b-]	*	*k[b-]	*	*k[b-]	*	*k[b-]	*	*k[b-]	*	*k[b-]	*	*k[b-]	*
*g:	*	*g:	*	*g:	*	*g:	*	*g:	*	*g:	*	*g:	*	*g:	*
*M2/2	*	*M2/2	*	*M2/2	*	*M2/2	*	*M2/2	*	*M2/2	*	*M2/2	*	*M2/2	*
*met(C|)	*	*met(C|)	*	*met(C|)	*	*met(C|)	*	*met(C|)	*	*met(C|)	*	*met(C|)	*	*met(C|)	*
=1-	=1-	=1-	=1-	=1-	=1-	=1-	=1-	=1-	=1-	=1-	=1-	=1-	=1-	=1-	=1-
!	!	!	!	!	!	!	!	!	!	!	!	!	!	!LO:TX:t=P:problem=kreska pseudotaktowa	!
1G	E-	1d	E-	2.b-\	E-	1dd	E-	1g	E-	1g	E-	1b-	E-	1dd	E-
.	.	.	.	4cc\	-xijt	.	.	.	.	.	.	.	.	.	.
=2-	=2-	=2-	=2-	=2-	=2-	=2-	=2-	=2-	=2-	=2-	=2-	=2-	=2-	=2-	=2-
2G/	-xijt	2g\	-xijt	2dd\	.	2b-/	-xijt	4g\	-xijt	4g\	-xijt	2b-\	-xijt	2dd\	-xijt
.	.	.	.	.	.	.	.	4f\	.	4f\	.	.	.	.	.
!	!	!	!	!	!	!	!	!	!	!	!	!	!	!LO:TX:t=P:problem=kreska pseudotaktowa	!
2c,>/	.	2c,>/	.	2cc,>\	.	2cc,\	.	2e\	.	4e/	.	4g/	.	2ee\	.
.	.	.	.	.	.	.	.	.	.	4d/	.	4a\	.	.	.
=3-	=3-	=3-	=3-	=3-	=3-	=3-	=3-	=3-	=3-	=3-	=3-	=3-	=3-	=3-	=3-
2B-/	ser-	1f	ser-	4f/	ser-	4dd\	ser-	2.d\	ser-	2c/	.	4b-\	.	2.ff\	ser-
.	.	.	.	4g/	.	4ee\	.	.	.	.	.	4cc\	.	.	.
2.F/	.	.	.	4a\	.	1ff\	.	.	.	4f\	ser-	4dd\	.	.	.
.	.	.	.	4b-\	.	.	.	4e\	.	4g\	.	4b-\	.	8ee\L	.
!	!	!	!	!	!	!	!	!	!	!	!	!	!	!LO:TX:t=P:problem=kreska pseudotaktowa	!
.	.	.	.	.	.	.	.	.	.	.	.	.	.	8dd\J	.
=4-	=4-	=4-	=4-	=4-	=4-	=4-	=4-	=4-	=4-	=4-	=4-	=4-	=4-	=4-	=4-
.	.	1c,>	-mo	4a\	.	.	.	2.f\	.	2.a\	.	1cc	ser-	2.cc\	.
4G/	.	.	.	4b-\	.	.	.	.	.	.	.	.	.	.	.
4A/	.	.	.	2cc\	.	2cc\,>	-mo	.	.	.	.	.	.	.	.
!	!	!	!	!	!	!	!	!	!	!	!	!	!	!LO:TX:t=P:problem=kreska pseudotaktowa	!
4B-/	.	.	.	.	.	.	.	8e\L	.	8g\L	.	.	.	4dd\	.
.	.	.	.	.	.	.	.	8d\J	.	8f\J	.	.	.	.	.
=5-	=5-	=5-	=5-	=5-	=5-	=5-	=5-	=5-	=5-	=5-	=5-	=5-	=5-	=5-	=5-
2.c/	.	1c	in-	1cc,>	-mo	2.cc\	in-	2.c/	.	0g	.	2g/	-mo	2.ee-X\	.
.	.	.	.	.	.	.	.	.	.	.	.	4cc\	.	.	.
4F/	.	.	.	.	.	4ff\	-ter	4d\	.	.	.	4dd\	in-	8dd\L	.
!	!	!	!	!	!	!	!	!	!	!	!	!	!	!LO:TX:t=P:problem=kreska pseudotaktowa	!
.	.	.	.	.	.	.	.	.	.	.	.	.	.	8cc\J	.
=6-	=6-	=6-	=6-	=6-	=6-	=6-	=6-	=6-	=6-	=6-	=6-	=6-	=6-	=6-	=6-
4E-X/	.	1g	-ter	4g/	in-	1gg	fra-	1e-X	.	.	.	2ee-X\	.	2.b-/	.
4F/	.	.	.	4a\	.	.	.	.	.	.	.	.	.	.	.
4G/	.	.	.	1b-\	.	.	.	.	.	.	.	4dd\	.	.	.
!	!	!	!	!	!	!	!	!	!	!	!	!	!	!LO:TX:t=P:problem=kreska pseudotaktowa	!
4A/	.	.	.	.	.	.	.	.	.	.	.	4cc\	.	4cc\	.
=7-	=7-	=7-	=7-	=7-	=7-	=7-	=7-	=7-	=7-	=7-	=7-	=7-	=7-	=7-	=7-
!	!	!	!	!	!	!	!	!	!	!	!	!	!	!LO:TX:t=P:problem=kreska pseudotaktowa	!
4B-/	.	1d	fra-	.	.	1dd,>	-tres	1d	.	1f	.	2b-\	-ter	1dd	.
4c/	.	.	.	.	.	.	.	.	.	.	.	.	.	.	.
2d\	.	.	.	2a\	.	.	.	.	.	.	.	4dd\	.	.	.
.	.	.	.	.	.	.	.	.	.	.	.	4cc\	.	.	.
=8-	=8-	=8-	=8-	=8-	=8-	=8-	=8-	=8-	=8-	=8-	=8-	=8-	=8-	=8-	=8-
2G,>/	-mo	2g\,>	-tres	2g/	-ter	1dd	in-	2g,>\	-mo	2g,>\	-mo	2b-\	fra-	2dd\,>	-mo
!	!	!	!	!	!	!	!	!	!	!	!	!	!	!LO:TX:t=P:problem=kreska pseudotaktowa	!
1G/	in-	1d/	in-	4dd\	.	.	.	1g\	in-	1g\	in-	2g,>/	-tres	1gg\	in-
.	.	.	.	4cc\	.	.	.	.	.	.	.	.	.	.	.
=9-	=9-	=9-	=9-	=9-	=9-	=9-	=9-	=9-	=9-	=9-	=9-	=9-	=9-	=9-	=9-
.	.	.	.	2b-\	fra-	2dd\	-ter	.	.	.	.	1dd	in-	.	.
2d\	-ter	2d/	-ter	2a\	-tres	2.dd\	fra-	2d\	-ter	2a\	-ter	.	.	2ff\	-ter
*	*	*	*	*custos:a	*	*	*	*	*	*	*	*	*	*custos:ee	*
!	!	!	!	!LO:LB:g=original	!	!	!	!	!	!	!	!	!	!LO:LB:g=original	!
=10-	=10-	=10-	=10-	=10-	=10-	=10-	=10-	=10-	=10-	=10-	=10-	=10-	=10-	=10-	=10-
1A	fra-	1e	fr(a-	1.a	in-	.	.	1a	fra-	1a	fra-	2dd\	-ter	1eeny	fra-
.	.	.	.	.	.	8cc\L	.	.	.	.	.	.	.	.	.
.	.	.	.	.	.	8b-\J	.	.	.	.	.	.	.	.	.
!	!	!	!	!	!	!LO:TX:a:t=P:problem=# below	!	!	!	!	!	!	!	!	!
.	.	.	.	.	.	2cc#X\	.	.	.	.	.	2a\	fr(at-	.	.
*	*	*	*	*	*	*custos:dd	*	*	*	*	*	*	*	*	*
!	!	!	!	!	!	!LO:LB:g=original	!	!	!	!	!	!	!	!	!
=11-	=11-	=11-	=11-	=11-	=11-	=11-	=11-	=11-	=11-	=11-	=11-	=11-	=11-	=11-	=11-
!	!	!LO:TX:a:t=P:problem=# below	!	!	!	!	!	!	!	!	!	!	!	!	!
2d\,>	-tres	2f#X\	-tr)es	.	.	2dd\,>	-tres	2d\	-tres	2a\	-tres	2a\	-r)es	2dd\	-tres
2d\	fra-	2f#\	fra-	2a\	-ter	2.dd\	fra-	2r	.	2r	.	2r	.	2r	.
*	*	*	*	*	*	*	*	*	*	*	*	*custos:dd	*	*	*
!	!	!	!	!	!	!	!	!	!	!	!	!LO:LB:g=original	!	!	!
=12-	=12-	=12-	=12-	=12-	=12-	=12-	=12-	=12-	=12-	=12-	=12-	=12-	=12-	=12-	=12-
1A	.	1e	.	1a	fra-	.	.	1r	.	1r	.	1r	.	1r	.
.	.	.	.	.	.	8ccny\L	.	.	.	.	.	.	.	.	.
.	.	.	.	.	.	8b-\J	.	.	.	.	.	.	.	.	.
!	!	!	!	!	!	!LO:TX:a:t=P:problem=# below	!	!	!	!	!	!	!	!	!
.	.	.	.	.	.	2cc#X\	.	.	.	.	.	.	.	.	.
=13-	=13-	=13-	=13-	=13-	=13-	=13-	=13-	=13-	=13-	=13-	=13-	=13-	=13-	=13-	=13-
2d\	-tres	2f#ny\	-tres	2a\	-tres	2dd\	-tres	2r	.	2r	.	2r	.	2r	.
!	!	!	!	!	!	!	!	!	!	!	!	!	!	!LO:TX:t=P:problem=kreska pseudotaktowa	!
2r	.	2r	.	2r	.	2r	.	2g\	quod	2b-\	quod	2dd\	Quod	2dd\	quod
*custos:d	*	*	*	*	*	*	*	*	*	*	*	*	*	*	*
!LO:LB:g=original	!	!	!	!	!	!	!	!	!	!	!	!	!	!	!
=14-	=14-	=14-	=14-	=14-	=14-	=14-	=14-	=14-	=14-	=14-	=14-	=14-	=14-	=14-	=14-
00r	.	00r	.	00r	.	00r	.	2c/	di-	2g\	di-	2cc\	di-	2ee\	di-
!	!	!	!	!	!	!	!	!	!	!	!	!	!	!LO:TX:t=P:problem=kreska pseudotaktowa	!
.	.	.	.	.	.	.	.	2.f\	-sci-	2.a\	-ſci-	2.cc\	-ſci-	2.ff\	-ſci-
=15-	=15-	=15-	=15-	=15-	=15-	=15-	=15-	=15-	=15-	=15-	=15-	=15-	=15-	=15-	=15-
.	.	.	.	.	.	.	.	.	.	.	.	.	.	.	.
.	.	.	.	.	.	.	.	4f\	-pu-	4a\	-pu-	4cc\	-pu-	4ff\	-pu-
*	*	*	*	*	*	*	*	*custos:d	*	*	*	*	*	*	*
!	!	!	!	!	!	!	!	!LO:LB:g=original	!	!	!	!	!	!	!
!	!	!	!	!	!	!	!	!	!	!	!	!	!	!LO:TX:t=P:problem=kreska pseudotaktowa	!
.	.	.	.	.	.	.	.	2d\	-lus	2a\,>	-lus	2dd\	-lus	2ff\	-lus
!	!	!	!	!	!	!	!	!	!	!LO:PB:g=original	!	!	!	!	!
=16-	=16-	=16-	=16-	=16-	=16-	=16-	=16-	=16-	=16-	=16-	=16-	=16-	=16-	=16-	=16-
.	.	.	.	.	.	.	.	1g	il-	1b-	il-	1b-	il-	2.dd\	il-
!	!	!	!	!	!	!	!	!	!	!	!	!	!	!LO:TX:t=P:problem=kreska pseudotaktowa	!
.	.	.	.	.	.	.	.	.	.	.	.	.	.	4ee\	-le
=17-	=17-	=17-	=17-	=17-	=17-	=17-	=17-	=17-	=17-	=17-	=17-	=17-	=17-	=17-	=17-
.	.	.	.	.	.	.	.	2f\	-le	2a,>\	-le	2cc\	-le	2ff,>\	.
!	!	!	!	!	!	!	!	!	!	!	!	!	!	!LO:TX:t=P:problem=kreska pseudotaktowa	!
.	.	.	.	.	.	.	.	2B-/	non	2b-\	non	2dd\	non	2ff\	non
=18-	=18-	=18-	=18-	=18-	=18-	=18-	=18-	=18-	=18-	=18-	=18-	=18-	=18-	=18-	=18-
1r	.	1r	.	1r	.	1r	.	2e-X\	mo-	2g\	mo-	4cc\	mo-	2ee-X\	mo-
.	.	.	.	.	.	.	.	.	.	.	.	4b-\	-ri-	.	.
!	!	!	!	!	!	!	!	!	!	!	!	!	!	!LO:TX:t=P:problem=kreska pseudotaktowa	!
.	.	.	.	.	.	.	.	2f\	-ri-	2f\	-ri-	2a\	-tur	2cc\	-ri-
=19-	=19-	=19-	=19-	=19-	=19-	=19-	=19-	=19-	=19-	=19-	=19-	=19-	=19-	=19-	=19-
2r	.	2r	.	2r	.	2r	.	2B-/	-tur	2f\	-tur	2b-\	.	2dd\	-tur
2d\	mo-	1fny\	mo-	1a\	mo-	1dd\	mo-	2r	.	2r	.	2r	.	2r	.
=20-	=20-	=20-	=20-	=20-	=20-	=20-	=20-	=20-	=20-	=20-	=20-	=20-	=20-	=20-	=20-
1A	-ri-	.	.	.	.	.	.	1r	.	1r	.	1r	.	1r	.
!	!	!	!	!	!	!LO:TX:a:t=P:problem=# below	!	!	!	!	!	!	!	!	!
.	.	2e/	-ri-	2a\	-ri-	2cc#X\	-ri-	.	.	.	.	.	.	.	.
*	*	*custos:f	*	*	*	*	*	*	*	*	*	*	*	*	*
!	!	!LO:LB:g=original	!	!	!	!	!	!	!	!	!	!	!	!	!
=21-	=21-	=21-	=21-	=21-	=21-	=21-	=21-	=21-	=21-	=21-	=21-	=21-	=21-	=21-	=21-
2d\	-tur	2f\	-tur	2a\	-tur	2dd\	-tur	2r	.	2r	.	2r	.	2r	.
!	!	!	!	!	!	!	!	!	!	!	!	!	!	!LO:TX:t=P:problem=kreska pseudotaktowa	!
2r	.	2r	.	2r	.	2r	.	2B-/	non	2d/	non	4b-\	non	2dd\	non
.	.	.	.	.	.	.	.	.	.	.	.	4a\	.	.	.
=22-	=22-	=22-	=22-	=22-	=22-	=22-	=22-	=22-	=22-	=22-	=22-	=22-	=22-	=22-	=22-
1r	.	1r	.	1r	.	1r	.	2c/	mo-	2e-X/	mo-	2g/	mo-	2cc\	mo-
!	!	!	!	!	!	!	!	!	!	!	!	!LO:TX:a:t=P:problem=# below	!	!LO:TX:t=P:problem=kreska pseudotaktowa	!
.	.	.	.	.	.	.	.	2d\	-ri-	2d/	-ri-	2f#X/	-ri-	2a/	-ri-
=23-	=23-	=23-	=23-	=23-	=23-	=23-	=23-	=23-	=23-	=23-	=23-	=23-	=23-	=23-	=23-
!	!	!	!	!	!	!	!	!	!	!	!	!	!	!LO:TX:a:t=P:problem=# below	!
!	!	!	!	!	!	!	!	!	!	!	!	!	!	!LO:N:acc=#	!
2r	.	2r	.	2r	.	2r	.	2G/	-tur,	2d/	-tur	2g/	-tur	2bnX/	-tur
2g\	mo-	2g\	mo-	2g/	mo-	2b-/	mo-	2r	.	2r	.	2r	.	2r	.
=24-	=24-	=24-	=24-	=24-	=24-	=24-	=24-	=24-	=24-	=24-	=24-	=24-	=24-	=24-	=24-
!	!	!LO:TX:a:t=P:problem=# below	!	!	!	!	!	!	!	!	!	!	!	!	!
1d	-ri-	1f#X	-ri-	1a	-ri-	1a	-ri-	1r	.	1r	.	1r	.	1r	.
=25-	=25-	=25-	=25-	=25-	=25-	=25-	=25-	=25-	=25-	=25-	=25-	=25-	=25-	=25-	=25-
!	!	!	!	!	!	!LO:TX:a:t=P:problem=# below	!	!	!	!	!	!	!	!	!
!	!	!	!	!	!	!LO:N:acc=#	!	!	!	!	!	!	!	!	!
2G/	-tur	2g\	-tur	2g/	-tur	2bn/	-tur	2r	.	2r	.	2r	.	2r	.
!	!	!	!	!	!	!	!	!	!	!	!	!	!	!LO:TX:t=P:problem=kreska pseudotaktowa	!
2r	.	2r	.	2r	.	2r	.	2.g\	et	2.b-\	et	2.dd\	et	2.gg\	Et
=26-	=26-	=26-	=26-	=26-	=26-	=26-	=26-	=26-	=26-	=26-	=26-	=26-	=26-	=26-	=26-
0r	.	0r	.	0r	.	0r	.	.	.	.	.	.	.	.	.
.	.	.	.	.	.	.	.	4g\	non	4b-\	non	4dd\	non	4gg\	non
.	.	.	.	.	.	.	.	4d\	di-	4a\	di-	4dd\	di-	4ff\	di-
!	!	!	!	!	!	!	!	!	!	!	!	!	!	!LO:TX:t=P:problem=kreska pseudotaktowa	!
.	.	.	.	.	.	.	.	4B-/	-xit	4b-\	-xit	4dd\	-xit	4dd\	-xit
*	*	*	*	*	*	*	*	*	*	*	*	*custos:cc	*	*	*
!	!	!	!	!	!	!	!	!	!	!	!	!LO:LB:g=original	!	!	!
=27-	=27-	=27-	=27-	=27-	=27-	=27-	=27-	=27-	=27-	=27-	=27-	=27-	=27-	=27-	=27-
.	.	.	.	.	.	.	.	2c/	JE-	2g\	JE-	2cc\	JE-	2ee-X\	JE-
!	!	!	!	!	!	!	!	!	!	!LO:TX:a:t=P:problem=# above	!	!	!	!	!
.	.	.	.	.	.	.	.	2d\	-SUS.	2f#X\	-SUS	2a\	-SUS	2dd\	-SUS
=28-	=28-	=28-	=28-	=28-	=28-	=28-	=28-	=28-	=28-	=28-	=28-	=28-	=28-	=28-	=28-
2c/	JE-	2g\	JE-	4cc\	JE-	2ee-X\	JE-	2r	.	2r	.	2r	.	2r	.
.	.	.	.	4b-\	.	.	.	.	.	.	.	.	.	.	.
!	!	!LO:TX:a:t=P:problem=# below	!	!	!	!	!	!	!	!	!	!	!	!	!
2d\	-SUS	2f#X\	-SUS	2a\	-SUS	2dd\	-SUS	4r	.	4r	.	4r	.	4r	.
!	!	!	!	!	!	!	!	!	!	!	!	!	!	!LO:TX:t=P:problem=kreska pseudotaktowa	!
.	.	.	.	.	.	.	.	4d\	non	4a\	non	4dd\	non	4ff\	non
=29-	=29-	=29-	=29-	=29-	=29-	=29-	=29-	=29-	=29-	=29-	=29-	=29-	=29-	=29-	=29-
2r	.	2r	.	2r	.	2r	.	4e-X\	mo-	4g\	mo-	4cc\	mo-	4ee-X\	mo-
.	.	.	.	.	.	.	.	4f\	-ri-	4fny\	-ri-	4a\	-ri-	4cc\	-ri-
!	!	!	!	!	!	!	!	!	!	!	!	!	!	!LO:TX:t=P:problem=kreska pseudotaktowa	!
4r	.	4r	.	4r	.	4r	.	2B-/	-tur	2f\	-tur	2b-\	-tur	2dd\	-tur
4B-/	mo-	4fny\	mo-	2b-\	mo-	4dd\	mo-	.	.	.	.	.	.	.	.
=30-	=30-	=30-	=30-	=30-	=30-	=30-	=30-	=30-	=30-	=30-	=30-	=30-	=30-	=30-	=30-
2F/	-ri-	2f\	-ri-	.	.	2ccny\	-ri-	2r	.	2r	.	2r	.	2r	.
.	.	.	.	4a\	-ri-	.	.	.	.	.	.	.	.	.	.
*	*	*	*	*	*	*	*	*custos:B-	*	*	*	*	*	*	*
!	!	!	!	!	!	!	!	!LO:LB:g=original	!	!	!	!	!	!	!
2B-/	-tur	2f\	-tur	2b-\	-tur	2dd\	-tur	4r	.	4r	.	4r	.	4r	.
!	!	!	!	!	!	!	!	!	!	!	!	!	!	!LO:TX:t=P:problem=kreska pseudotaktowa	!
.	.	.	.	.	.	.	.	4B-/	non	4d/	non	4b-\	non	4dd\	non
*	*	*	*	*	*	*	*	*	*	*custos:e-	*	*	*	*	*
!	!	!	!	!	!	!	!	!	!	!LO:LB:g=original	!	!	!	!	!
=31-	=31-	=31-	=31-	=31-	=31-	=31-	=31-	=31-	=31-	=31-	=31-	=31-	=31-	=31-	=31-
2r	.	2r	.	2r	.	2r	.	4c/	mo-	4e-X/	mo-	4g/	mo-	4cc\	mo-
!	!	!	!	!	!	!	!	!	!	!	!	!LO:TX:a:t=P:problem=# below	!	!	!
.	.	.	.	.	.	.	.	4d\	-ri-	4d/	-ri-	4f#X/	-ri-	4a/	-ri-
!	!	!	!	!	!	!	!	!	!	!	!	!	!	!LO:TX:t=P:problem=kreska pseudotaktowa	!
4r	.	4r	.	4r	.	4r	.	2G/	-tur	2d/	-tur	2g/	-tur	2b-y/	-tur
4g\	mo-	4g\	mo-	4g/	mo-	4b-y/	mo-	.	.	.	.	.	.	.	.
*	*	*	*	*	*	*custos:a	*	*	*	*	*	*	*	*	*
!	!	!	!	!	!	!LO:LB:g=original	!	!	!	!	!	!	!	!	!
=32-	=32-	=32-	=32-	=32-	=32-	=32-	=32-	=32-	=32-	=32-	=32-	=32-	=32-	=32-	=32-
!	!	!LO:TX:a:t=P:problem=# below	!	!	!	!	!	!	!	!	!	!	!	!	!
2d\	-ri-	2f#X\	-ri-	2a\	-ri-	2a/	-ri-	2r	.	2r	.	2r	.	2r	.
!	!	!	!	!	!	!LO:TX:a:t=P:problem=# below	!	!	!	!	!	!	!	!	!
2G/	-tur	2g\	-tur	2g/	-tur	2b-/	-tur	4r	.	4r	.	4r	.	4r	.
.	.	.	.	.	.	.	.	2g\	Sed	2b-\	Sed	2b-\	Sed	2dd\	Sed
*	*	*	*	*custos:dd	*	*	*	*	*	*	*	*	*	*	*
!	!	!	!	!LO:LB:g=original	!	!	!	!	!	!	!	!	!	!	!
=33-	=33-	=33-	=33-	=33-	=33-	=33-	=33-	=33-	=33-	=33-	=33-	=33-	=33-	=33-	=33-
0r	.	0r	.	0r	.	0r	.	.	.	.	.	.	.	.	.
.	.	.	.	.	.	.	.	4f\	sic	4g\	sic	4b-\	sic	4dd\	sic
.	.	.	.	.	.	.	.	4d\	e-	4f\	e-	4a\	e-	4dd\	e-
!	!	!	!	!	!	!	!	!	!	!	!	!	!	!LO:TX:t=P:problem=kreska pseudotaktowa	!
.	.	.	.	.	.	.	.	4c/	-um	4g\	-um	4cc\	-um	4eeny\	-um
=34-	=34-	=34-	=34-	=34-	=34-	=34-	=34-	=34-	=34-	=34-	=34-	=34-	=34-	=34-	=34-
.	.	.	.	.	.	.	.	2B-/	Vo-	2b-\	vo-	2dd\	vo-	2ff\	vo-
.	.	.	.	.	.	.	.	4c/	-lo	4g\	-lo	4g/	-lo	4ee\	-lo
!	!	!	!	!	!	!	!	!	!	!	!	!	!	!LO:TX:t=P:problem=kreska pseudotaktowa	!
.	.	.	.	.	.	.	.	4d\	ma-	4d/	ma-	4dd\	ma-	4ff\	ma-
=35-	=35-	=35-	=35-	=35-	=35-	=35-	=35-	=35-	=35-	=35-	=35-	=35-	=35-	=35-	=35-
2r	.	2r	.	2r	.	2r	.	2e-X\	-ne-	2g\	-ne-	4.b-\	-ne-	2gg\	-ne-
.	.	.	.	.	.	.	.	.	.	.	.	8cc\	.	.	.
!	!	!	!	!	!	!	!	!	!	!	!	!	!	!LO:TX:a:t=P:problem=# below	!
4r	.	4r	.	4r	.	4r	.	2d\	-re.	2a\	-re	2dd\	-re	2ff#X\	-re.
!	!	!	!	!	!	!LO:TX:a:t=P:problem=# below	!	!	!	!	!	!	!	!	!
4d\	ma-	4a\	ma-	4dd\	ma-	4ff#X\	ma-	.	.	.	.	.	.	.	.
*	*	*	*	*	*	*	*	*	*	*	*	*	*	*custos:ff	*
!	!	!	!	!	!	!	!	!	!	!	!	!	!	!LO:LB:g=original	!
=36-	=36-	=36-	=36-	=36-	=36-	=36-	=36-	=36-	=36-	=36-	=36-	=36-	=36-	=36-	=36-
2e-X\	-ne-	2g\	-ne-	4b-\	ne-	2gg\	-ne-	2r	.	2r	.	2r	.	2r	.
.	.	.	.	4cc\	.	.	.	.	.	.	.	.	.	.	.
!	!	!	!	!	!	!LO:TX:a:t=P:problem=# below	!	!	!	!	!	!	!	!	!
2d\	-re	2a\	-re	2dd\	-re	2ff#X\	-re	4r	.	4r	.	4r	.	4r	.
!	!	!	!	!	!	!	!	!	!	!	!	!	!	!LO:TX:t=P:problem=kreska pseudotaktowa	!
.	.	.	.	.	.	.	.	4d\	vo-	4f\	vo-	8a\L	vo-	4ffny\	Vo-
.	.	.	.	.	.	.	.	.	.	.	.	8b-\J	.	.	.
=37-	=37-	=37-	=37-	=37-	=37-	=37-	=37-	=37-	=37-	=37-	=37-	=37-	=37-	=37-	=37-
1r	.	1r	.	1r	.	1r	.	4c/	-lo	4g\	-lo	4cc\	-lo	4ee\	-lo
*	*	*	*	*	*	*	*	*	*	*	*	*custos:cc	*	*	*
!	!	!	!	!	!	!	!	!	!	!	!	!LO:LB:g=original	!	!	!
.	.	.	.	.	.	.	.	4A/	ma-	4a\	ma-	4cc\	ma-	4cc\	ma-
!	!	!	!	!	!	!	!	!	!	!	!	!	!	!LO:TX:t=P:problem=kreska pseudotaktowa	!
.	.	.	.	.	.	.	.	2B-/	-ne-	4f\	-ne-	2b-\	-ne-	2dd\	-ne-
.	.	.	.	.	.	.	.	.	.	4g\	.	.	.	.	.
*custos:A	*	*	*	*	*	*	*	*	*	*	*	*	*	*	*
!LO:LB:g=original	!	!	!	!	!	!	!	!	!	!	!	!	!	!	!
=38-	=38-	=38-	=38-	=38-	=38-	=38-	=38-	=38-	=38-	=38-	=38-	=38-	=38-	=38-	=38-
4r	.	4r	.	4r	.	4r	.	2A/	-re	2a\	-re	2cc\	-re	2cc\	-re
4A/	ma-	4e/	ma-	4a\	ma-	4cc\	ma-	.	.	.	.	.	.	.	.
!	!	!	!	!	!	!	!	!	!	!	!	!	!	!LO:TX:t=P:problem=kreska pseudotaktowa	!
2B-/	-ne-	2d/	-ne-	4.f/	-ne-	2dd\	-ne-	2r	.	2r	.	2r	.	2r	.
.	.	.	.	8g/	.	.	.	.	.	.	.	.	.	.	.
*	*	*custos:e	*	*	*	*	*	*	*	*	*	*	*	*	*
!	!	!LO:LB:g=original	!	!	!	!	!	!	!	!	!	!	!	!	!
=39-	=39-	=39-	=39-	=39-	=39-	=39-	=39-	=39-	=39-	=39-	=39-	=39-	=39-	=39-	=39-
4A/	-re	4e/	-re	4a\	-re	4cc\	-re	4r	.	4r	.	4r	.	4r	.
4r	.	4r	.	4r	.	4r	.	4B-/	vo-	4f\	vo-	4b-\	vo-	4dd\	Vo-
2r	.	2r	.	2r	.	2r	.	4A/	-lo	4g\	-lo	4cc\	-lo	4cc\	-lo
!	!	!	!	!	!	!	!	!	!	!	!	!	!	!LO:TX:t=P:problem=kreska pseudotaktowa	!
.	.	.	.	.	.	.	.	4F/	ma-	4a\	ma-	4fny/	ma-	4a/	ma-
=40-	=40-	=40-	=40-	=40-	=40-	=40-	=40-	=40-	=40-	=40-	=40-	=40-	=40-	=40-	=40-
2r	.	2r	.	2r	.	2r	.	2G/	-ne-	2d/	-ne-	4b-\	-ne-	2b-/	-ne-
.	.	.	.	.	.	.	.	.	.	.	.	4g/	.	.	.
!	!	!	!	!	!	!	!	!	!	!	!	!LO:TX:a:t=P:problem=# below	!	!	!
4r	.	4r	.	4r	.	4r	.	2d\	-re	2d/	-re	2f#X/	-re	2a/	-re
!	!	!LO:TX:a:t=P:problem=# below	!	!	!	!	!	!	!	!	!	!	!	!	!
4d\	ma-	4f#X\	ma-	4a\	ma-	4a/	ma-	.	.	.	.	.	.	.	.
*	*	*	*	*	*	*	*	*custos:d	*	*	*	*	*	*	*
!	!	!	!	!	!	!	!	!LO:LB:g=original	!	!	!	!	!	!	!
=41-	=41-	=41-	=41-	=41-	=41-	=41-	=41-	=41-	=41-	=41-	=41-	=41-	=41-	=41-	=41-
2G/	-ne-	2g\	-ne-	2g/	-ne-	2b-/	-ne-	2r	.	2r	.	2r	.	2r	.
*	*	*	*	*	*	*	*	*	*	*custos:a	*	*	*	*	*
!	!	!LO:TX:a:t=P:problem=# below	!	!	!	!	!	!	!	!	!	!	!	!	!
!	!	!	!	!	!	!	!	!	!	!LO:LB:g=original	!	!	!	!	!
2d\	-re	2f#X\	-re	2a\	-re	2a/	-re.	4r	.	4r	.	4r	.	4r	.
.	.	.	.	.	.	.	.	2d\	do-	2a\	do-	2dd\	do-	2ff\	do-
=42-	=42-	=42-	=42-	=42-	=42-	=42-	=42-	=42-	=42-	=42-	=42-	=42-	=42-	=42-	=42-
1r	.	1r	.	1r	.	1r	.	.	.	.	.	.	.	.	.
.	.	.	.	.	.	.	.	4A/	-nec	4a\	-nec	4cc\	-nec	4ee\	-nec
.	.	.	.	.	.	.	.	4B-/	ve-	4f\	ve-	4b-\	ve-	4dd\	ve-
!	!	!	!	!	!	!	!	!	!	!	!	!	!	!LO:TX:t=P:problem=kreska pseudotaktowa	!
.	.	.	.	.	.	.	.	4B-/	-ni-	4g\	-ni-	4b-\	-ni-	4dd\	-ni-
=43-	=43-	=43-	=43-	=43-	=43-	=43-	=43-	=43-	=43-	=43-	=43-	=43-	=43-	=43-	=43-
!	!	!	!	!	!	!	!	!	!	!	!	!	!	!LO:TX:t=P:problem=kreska pseudotaktowa	!
4r	.	4r	.	4r	.	4r	.	4A/	-am	4a\	-am	4cc\	-am	4ee\	-am
2B-/	ve-	2fny\	ve-	2dd\	ve-	2dd\	ve-	4r	.	4r	.	4r	.	4r	.
.	.	.	.	.	.	.	.	2r	.	2r	.	2r	.	2r	.
4B-/	-ni-	4g\	-ni-	4b-\	-ni-	4dd\	-ni-	.	.	.	.	.	.	.	.
=44-	=44-	=44-	=44-	=44-	=44-	=44-	=44-	=44-	=44-	=44-	=44-	=44-	=44-	=44-	=44-
4A/	-am	4a\	-am	4cc\	-am	4eeny\	-am	4r	.	4r	.	4r	.	4r	.
4r	.	4r	.	4r	.	4r	.	2f\	ve-	4a\	ve-	2cc\	ve-	2ff\	ve-
2r	.	2r	.	2r	.	2r	.	.	.	2g\	-ni-	.	.	.	.
.	.	.	.	.	.	.	.	4c/	-ni-	.	.	4cc\	-ni-	4ee\	-ni-
=45-	=45-	=45-	=45-	=45-	=45-	=45-	=45-	=45-	=45-	=45-	=45-	=45-	=45-	=45-	=45-
4r	.	4r	.	4r	.	4r	.	2f\	-am	2a\	-am	2cc\	-am	2ff\	-am
4f\	ve-	4a\	ve-	4cc\	ve-	2ffny\	ve-	.	.	.	.	.	.	.	.
!	!	!	!	!	!	!	!	!	!	!	!	!	!	!LO:TX:t=P:problem=kreska pseudotaktowa	!
2c/	-ni-	2g\	-ni-	2cc\	-ni-	.	.	2r	.	2r	.	2r	.	2r	.
.	.	.	.	.	.	4ee\	-ni-	.	.	.	.	.	.	.	.
*	*	*	*	*	*	*custos:ff	*	*	*	*	*	*	*	*	*
!	!	!	!	!	!	!LO:PB:g=original	!	!	!	!	!	!	!	!	!
=46-	=46-	=46-	=46-	=46-	=46-	=46-	=46-	=46-	=46-	=46-	=46-	=46-	=46-	=46-	=46-
4f\	-am	4a\	-am	4cc\	-am	4ff\	-am	4r	.	4r	.	4r	.	4r	.
4r	.	4r	.	4r	.	4r	.	4G/	ve-	4g\	ve-	4dd\	ve-	2gg\	ve-
*	*	*	*	*custos:b-	*	*	*	*	*	*	*	*	*	*	*
!	!	!	!	!LO:PB:g=original	!	!	!	!	!	!	!	!	!	!	!
2r	.	2r	.	2r	.	2r	.	2d\	-ni-	2a\	-ni-	2dd\	-ni-	.	.
!	!	!	!	!	!	!	!	!	!	!	!	!	!	!LO:TX:a:t=P:problem=# above	!
.	.	.	.	.	.	.	.	.	.	.	.	.	.	4ff#X\	-ni-
=47-	=47-	=47-	=47-	=47-	=47-	=47-	=47-	=47-	=47-	=47-	=47-	=47-	=47-	=47-	=47-
2G/	ve-	2g\	ve-	2b-\	ve-	2dd\	ve-	4G,>/	-am	4g\,>	-am	4dd\	-am	4gg\,>	-am
*	*	*	*	*	*	*	*	*	*	*	*	*custos:b-	*	*	*
!	!	!	!	!	!	!	!	!	!	!	!	!LO:LB:g=original	!	!	!
.	.	.	.	.	.	.	.	4f\	ve-	4g\	ve-	4b-\	ve-	4gg\	ve-
!	!	!	!	!	!	!	!	!	!	!	!	!	!	!LO:TX:a:t=P:problem=# above	!
2d\	-ni-	2a\	-ni-	2a\	-ni-	2dd\	-ni-	2d\	-ni-	2a\	-ni-	2a\	-ni-	2ff#X\	-ni-
*	*	*	*	*	*	*	*	*	*	*	*	*	*	*custos:gg	*
!	!	!	!	!	!	!	!	!	!	!	!	!	!	!LO:PB:g=original	!
=48-	=48-	=48-	=48-	=48-	=48-	=48-	=48-	=48-	=48-	=48-	=48-	=48-	=48-	=48-	=48-
2G/	-am	2g\	-am	2b-\	-am	2dd\	-am	4f,>\	-am	4g\,>	-am	4b-\,>	-am	4gg,>\	-am
.	.	.	.	.	.	.	.	4f\	Al-	4b-\	Al-	4dd\	Al-	4gg\	Al-
!	!	!	!	!	!	!	!	!LO:TX:a:t=P:problem=# above	!	!	!	!	!	!	!
4r	.	4r	.	4r	.	4r	.	4f#X\	-l(e-	4a\	-l(e-	4dd\	-l(e-	4aa\	-l(e-
4g\	Al-	4.g\	Al-	4b-\	Al-	4gg\	Al-	4g\	-lu-	4g\	-lu-	4dd\	-lu-	4gg\	-lu-
=49-	=49-	=49-	=49-	=49-	=49-	=49-	=49-	=49-	=49-	=49-	=49-	=49-	=49-	=49-	=49-
!	!	!	!	!	!	!	!	!	!	!	!	!	!	!LO:TX:a:t=P:problem=# below	!
!LO:TX:a:t=P:problem=# below	!	!	!	!	!	!	!	!	!	!	!	!	!	!	!
!LO:LB:g=original	!	!	!	!	!	!	!	!	!	!	!	!	!	!	!
4f#X\	-l(e-	.	.	4a\	-l(e-	4aa\	-l(e-	4d\	-i)a	4a\	-i)a	4dd\	-i)a	4ff#X\,>	-i)a
.	.	8d/	-l(e-	.	.	.	.	.	.	.	.	.	.	.	.
*custos:g	*	*	*	*	*	*	*	*	*	*	*	*	*	*	*
4g\	-lu-	4d/	-lu-	4g/	-lu-	4gg\	-lu-	4g\	Al-	4b-\	Al-	4b-\	Al-	4gg\	Al-
!	!	!	!	!	!	!LO:TX:a:t=P:problem=# below	!	!LO:TX:a:t=P:problem=# above	!	!	!	!	!	!	!
4d\,>	-i)a	4d/	-i)a	4a,\	-i)a	4ff#X\,>	-i)a	4f#X\	-l(e-	4a\	-l(e-	4dd\	-l(e-	4aa\	-le-
*	*	*custos:d	*	*	*	*	*	*	*	*	*	*	*	*	*
!	!	!LO:LB:g=original	!	!	!	!	!	!	!	!	!	!	!	!	!
!	!	!	!	!	!	!	!	!	!	!	!	!	!	!LO:TX:t=P:problem=kreska pseudotaktowa	!
4g\	Al-	4d/	Al-	4b-\	Al-	4gg\	Al-	4g\	-lu-	4g\	-lu-	4dd\	-lu-	4gg\	-lu-
=50-	=50-	=50-	=50-	=50-	=50-	=50-	=50-	=50-	=50-	=50-	=50-	=50-	=50-	=50-	=50-
!LO:TX:a:t=P:problem=# above	!	!	!	!	!	!	!	!	!	!	!	!	!	!	!
4f#X\	-l(e-	4d/	-l(e-	4a\	-l(e-	4aa\	-l(e-	4d\	-i)a	4a\	-i)a	4dd\	-i)a	4ffny\	-i)a
4g\	-lu-	4d/	-lu-	4g/	-lu-	4gg\	-lu-	4r	.	4r	.	4r	.	4r	.
*	*	*	*	*	*	*	*	*custos:d	*	*	*	*	*	*	*
!	!	!	!	!	!	!LO:TX:a:t=P:problem=# above	!	!LO:TX:t=P:problem=błędny kustosz?	!	!	!	!	!	!	!
!	!	!	!	!	!	!	!	!LO:LB:g=original	!	!	!	!	!	!	!
4d\	-i)a	4d/	-i)a	4a\	-i)a	4ff#X\	-i)a	4r	.	4r	.	4r	.	4r	.
*	*	*	*	*	*	*	*	*	*	*custos:g	*	*	*	*	*
!	!	!	!	!	!	!	!	!	!	!LO:LB:g=original	!	!	!	!	!
!	!	!	!	!	!	!	!	!	!	!	!	!	!	!LO:TX:t=P:problem=kreska pseudotaktowa	!
4r	.	4r	.	4r	.	4r	.	4B-/	Al-	4g\	Al-	4cc\	Al-	4gg\	Al-
=51-	=51-	=51-	=51-	=51-	=51-	=51-	=51-	=51-	=51-	=51-	=51-	=51-	=51-	=51-	=51-
4r	.	4r	.	4r	.	4r	.	4A/	-l(e-	4g\	-l(e-	4dd\	-l(e-	4dd\	-l(e-
4c/	Al-	4g\	Al-	4g/	Al-	4gg\	Al-	4B-/	-lu-	4g\	-lu-	4cc\	-lu-	4ee-X\	-lu-
4Bny/	-l(e-	4g\	-l(e-	4g/	-l(e-	4dd\	-l(e-	4F,>/	-i)a	4g\,>	-i)a	4b-\,>	-i)a	4dd\,>	-i)a
!	!	!	!	!	!	!	!	!	!	!	!	!	!	!LO:TX:t=P:problem=kreska pseudotaktowa	!
4c/	-lu-	4g\	-lu-	4g/	-lu-	4ee-X\	-lu-	4B-/	Al-	4g\	Al-	4cc\	Al-	4cc\	Al-
=52-	=52-	=52-	=52-	=52-	=52-	=52-	=52-	=52-	=52-	=52-	=52-	=52-	=52-	=52-	=52-
4G,>/	-i)a	4f\,>	-i)a	4b-\	-i)a	4dd\,>	-i)a	4A#X/	-l(e-	4g\	-l(e-	4g/	-l(e-	4dd\	-l(e-
4c/	Al-	4ryy	.	4g/	Al-	4cc\	Al-	4B-/	-lu-	4g\	-lu-	4cc\	-lu-	4ee-X\	-lu-
2g\	-l(e-	2g\	Al-	2.b-\	-l(e-	2dd\	-l(e-	2G/,>	-i)a	2g\,>	-i)a	2b-,>\	-i)a	4dd\	-i)a
!	!	!	!	!	!	!	!	!	!	!	!	!	!	!LO:TX:t=P:problem=kreska pseudotaktowa	!
.	.	.	.	.	.	.	.	.	.	.	.	.	.	4gg\	Al-
=53-	=53-	=53-	=53-	=53-	=53-	=53-	=53-	=53-	=53-	=53-	=53-	=53-	=53-	=53-	=53-
1c	-lu-	1g	-l(e-	.	.	4ee-X\	.	4c/	Al-	1g	Al-	2g/	Al-	4cc\	-l(e-
.	.	.	.	4b-\	-lu-	4dd\	.	4d\	.	.	.	.	.	4dd\	-lu-
!	!	!	!	!	!	!	!	!	!	!	!	!	!	!LO:TX:t=P:problem=kreska pseudotaktowa	!
.	.	.	.	2g,>/	-i)a	2cc\	-lu-	4eny\	.	.	.	2cc\	.	2ee-X\	.
.	.	.	.	.	.	.	.	4fny\	.	.	.	.	.	.	.
=54-	=54-	=54-	=54-	=54-	=54-	=54-	=54-	=54-	=54-	=54-	=54-	=54-	=54-	=54-	=54-
4G/	-i)a	2g\	-lu-	2g/	Al-	2dd\	-i)a	1g	-l(e-	1.g	-l(e-	1b-	-l(e-	4dd\,>	-i)a
4A/	Al-	.	.	.	.	.	.	.	.	.	.	.	.	4gg\	Al-
*	*	*	*	*	*	*custos:dd	*	*	*	*	*	*	*	*	*
!	!	!	!	!	!	!LO:LB:g=original	!	!	!	!	!	!	!	!	!
!	!	!	!	!	!	!	!	!	!	!	!	!	!	!LO:TX:t=P:problem=kreska pseudotaktowa	!
4B-y/	-l(e-	2d/,>	-i)a	2b-\	-le-	2dd\	.	.	.	.	.	.	.	2dd\	-l(e-
4G/	-lu-	.	.	.	.	.	.	.	.	.	.	.	.	.	.
=55-	=55-	=55-	=55-	=55-	=55-	=55-	=55-	=55-	=55-	=55-	=55-	=55-	=55-	=55-	=55-
1c	.	2g\	Al-	1g	-lu-	4ee-X\	Al-	1c	-lu-	.	.	2.cc\	-lu-	4cc\	.
.	.	.	.	.	.	4dd\	-le-	.	.	.	.	.	.	4dd\	.
.	.	4c/	-l(e-	.	.	2cc\	-lu-	.	.	2g\	-l(u)-	.	.	2ee-X\	-lu-
.	.	4g\	-lu-	.	.	.	.	.	.	.	.	8b-\L	.	.	.
.	.	.	.	.	.	.	.	.	.	.	.	8a\J	.	.	.
=56-	=56-	=56-	=56-	=56-	=56-	=56-	=56-	=56-	=56-	=56-	=56-	=56-	=56-	=56-	=56-
0G;;	-i)a.	0g;;	-i)a	0g;;	-i)a	0dd;;	-i)a.	0g;;	-i)a.	0g;;	-i)a.	0b-;;	-i)a	0dd;;	-i)a
=-	=-	=-	=-	=-	=-	=-	=-	=-	=-	=-	=-	=-	=-	=-	=-
*-	*-	*-	*-	*-	*-	*-	*-	*-	*-	*-	*-	*-	*-	*-	*-
!!!system-decoration: [(g1)][(g2)]
!!!RDF**kern: > = abovke
!!!RDF**kern: < = below
!!!ENC: Andrzej Gręziak
!!!END: 2021-10-16
!!!EED: Jędrzej Mróz
!!!ESR: 2021-10-22
!!!YEC: Copyright 2022 Narodowy Instytut Fryderyka Chopina (https://polishscores.org)
!!!YEM: License CC-BY-4.0 (https://creativecommons.org/licenses/by/4.0)
